src/assets/images/supported_chain/Polygon.svg

<svg width="1024" height="225" viewBox="0 0 1024 225" fill="none" xmlns="http://www.w3.org/2000/svg">
<g clip-path="url(#clip0)">
<path d="M400.613 71.6709C406.895 75.4684 412.211 80.6899 415.593 87.8101C419.459 94.9304 421.392 103.475 421.392 112.968C421.392 122.462 419.459 130.532 415.11 137.652C411.244 144.772 405.445 149.994 398.196 153.316C390.948 157.114 382.249 159.013 373.068 159.013C367.752 159.013 362.919 158.063 358.087 156.165C353.254 154.741 348.905 151.892 345.522 148.57V197.937H317.494V67.8734H341.656L344.073 78.3165C354.704 69.7722 366.302 65.5 378.383 65.5C386.598 65.5 394.33 67.3987 400.613 71.6709ZM385.149 130.532C389.981 126.26 392.397 120.563 392.397 113.443C392.397 106.323 389.981 100.627 385.632 95.8798C381.283 91.1329 375.484 89.2342 369.202 89.2342C363.886 89.2342 359.053 90.1836 355.187 92.557C351.321 94.4557 348.422 97.7785 346.006 102.051V123.411C347.455 127.684 350.355 131.006 353.738 133.38C357.604 135.753 361.953 137.177 367.269 137.177C374.517 137.177 380.316 134.804 385.149 130.532Z" fill="#212121"/>
<path d="M437.821 88.275C442.171 81.6294 447.969 75.9332 455.701 72.1357C463.433 68.3383 472.132 65.9648 481.797 65.9648C491.462 65.9648 500.16 67.8636 507.892 72.1357C515.141 75.9332 520.94 81.6294 525.289 88.7496C529.638 95.8699 531.571 103.465 531.571 112.484C531.571 121.503 529.638 129.098 525.289 136.218C520.94 143.338 515.624 149.034 507.892 152.832C500.643 156.629 491.462 159.003 481.797 159.003C472.132 159.003 463.433 157.104 455.701 153.307C447.969 149.509 442.171 144.288 437.821 137.167C433.955 130.047 431.539 121.977 431.539 112.484C431.539 103.465 433.955 95.3952 437.821 88.275ZM466.333 129.572C470.199 134.319 475.515 136.218 481.797 136.218C488.079 136.218 493.395 133.845 497.261 129.572C501.127 125.3 503.06 119.129 503.06 112.484C503.06 105.364 501.127 99.6674 497.261 95.3952C492.911 90.6484 488.079 88.275 481.314 88.275C475.031 88.275 470.199 90.6484 465.85 94.9205C461.984 99.6674 460.051 105.364 460.051 112.484C460.051 119.129 461.984 124.826 466.333 129.572Z" fill="#212121"/>
<path d="M577.001 0.463867V156.635H548.973V0.463867H577.001Z" fill="#212121"/>
<path d="M692.01 70.2405L634.987 198.405H607.926L629.188 152.361L588.596 70.2405H620.49L643.686 121.506L666.882 70.2405H692.01Z" fill="#212121"/>
<path d="M799.287 70.237V156.629C799.287 164.699 796.871 172.294 792.038 178.94C787.206 185.585 780.923 190.807 772.708 194.604C764.493 198.402 755.795 200.3 746.13 200.3C738.881 200.3 732.599 199.351 727.283 197.927C721.967 196.028 717.618 194.129 714.235 192.231C710.37 189.857 706.504 187.009 702.154 183.212L718.585 164.224C722.451 168.022 726.8 170.87 730.666 172.769C734.532 174.667 739.848 176.091 745.647 176.091C752.895 176.091 758.694 174.193 763.527 170.87C768.359 167.547 770.775 162.326 770.775 156.155V143.813C767.876 148.085 764.01 151.883 758.211 154.731C752.412 157.579 745.647 159.003 737.915 159.003C730.183 159.003 722.451 157.104 715.685 152.832C708.92 149.034 703.604 143.338 699.255 136.218C695.389 129.098 692.973 121.503 692.973 112.959C692.973 104.414 694.906 96.3446 699.255 89.2243C703.604 82.1041 708.92 76.4079 716.168 72.1357C722.934 67.8636 730.183 65.9648 737.915 65.9648C745.163 65.9648 751.445 66.9142 757.244 68.8129C763.043 70.7117 767.393 73.5598 770.292 76.8826L773.192 70.237H799.287ZM770.775 123.402V102.041C768.842 97.7687 765.943 94.4459 761.594 92.0724C757.244 89.699 752.412 88.275 746.613 88.275C739.848 88.275 734.049 90.6484 729.216 94.9205C724.384 99.1927 721.967 104.889 721.967 112.009C721.967 118.655 724.384 124.826 729.216 129.572C734.049 134.319 739.848 136.693 746.613 136.693C757.728 136.218 765.943 131.946 770.775 123.402Z" fill="#212121"/>
<path d="M822.491 88.2848C826.84 81.1646 832.639 75.943 840.371 71.6709C848.103 67.8734 856.802 65.5 866.467 65.5C876.132 65.5 884.83 67.3987 892.562 71.6709C899.811 75.4684 905.61 81.1646 909.959 88.2848C913.825 95.4051 916.241 103 916.241 112.019C916.241 121.038 914.308 128.633 909.959 135.753C906.093 142.873 900.294 148.57 892.562 152.367C885.313 156.165 876.132 158.538 866.467 158.538C856.802 158.538 848.103 156.639 840.371 152.842C832.639 149.044 826.84 143.823 822.491 136.703C818.142 129.582 816.209 121.513 816.209 111.544C816.209 103.475 818.142 95.4051 822.491 88.2848ZM850.52 129.582C854.386 134.329 859.701 136.228 865.983 136.228C872.266 136.228 877.581 133.854 881.447 129.582C885.313 125.31 887.246 119.139 887.246 112.494C887.246 105.373 885.313 99.6772 881.447 95.4051C877.581 91.1329 872.266 88.7595 865.983 88.7595C859.701 88.7595 854.869 91.1329 850.52 95.4051C846.17 99.6772 844.237 105.848 844.237 112.494C844.721 119.139 846.654 124.835 850.52 129.582Z" fill="#212121"/>
<path d="M1015.31 73.0851C1021.11 77.8319 1023.52 84.0028 1024 91.5978V156.629H995.493V102.041C995.01 93.4965 990.661 89.2243 982.445 89.2243C976.163 89.2243 970.848 92.0724 966.982 98.2433C963.116 104.414 961.183 112.009 961.183 121.028V156.629H933.154V70.237H958.766L960.699 84.0028C964.082 78.3066 968.431 74.0345 974.23 70.7117C980.029 67.3889 986.795 65.9648 994.527 65.9648C1002.74 65.9648 1009.99 68.3383 1015.31 73.0851Z" fill="#212121"/>
<path d="M197.648 68.8237C192.815 65.9756 186.533 65.9756 181.218 68.8237L143.524 90.6592L117.912 104.9L80.219 126.735C75.3865 129.583 69.1043 129.583 63.7886 126.735L33.8273 109.646C28.9948 106.798 25.6121 101.577 25.6121 95.8807V62.1781C25.6121 56.4819 28.5116 51.2604 33.8273 48.4123L63.3053 31.7984C68.1378 28.9503 74.42 28.9503 79.7357 31.7984L109.214 48.4123C114.046 51.2604 117.429 56.4819 117.429 62.1781V84.0136L143.041 69.2984V47.463C143.041 41.7667 140.142 36.5452 134.826 33.6971L80.219 2.36801C75.3865 -0.480092 69.1043 -0.480092 63.7886 2.36801L8.2152 33.6971C2.89948 36.5452 0 41.7667 0 47.463V110.596C0 116.292 2.89948 121.514 8.2152 124.362L63.7886 155.691C68.621 158.539 74.9033 158.539 80.219 155.691L117.912 134.33L143.524 119.615L181.218 98.2541C186.05 95.406 192.332 95.406 197.648 98.2541L227.126 114.868C231.958 117.716 235.341 122.938 235.341 128.634V162.336C235.341 168.033 232.442 173.254 227.126 176.102L197.648 193.191C192.815 196.039 186.533 196.039 181.218 193.191L151.74 176.577C146.907 173.729 143.524 168.507 143.524 162.811V140.976L117.912 155.691V177.526C117.912 183.222 120.812 188.444 126.127 191.292L181.701 222.621C186.533 225.469 192.815 225.469 198.131 222.621L253.705 191.292C258.537 188.444 261.92 183.222 261.92 177.526V114.393C261.92 108.697 259.02 103.476 253.705 100.628L197.648 68.8237Z" fill="#8247E5"/>
</g>
<defs>
<clipPath id="clip0">
<rect width="1024" height="225" fill="white"/>
</clipPath>
</defs>
</svg>

<svg width="1024" height="225" fill="none" xmlns="http://www.w3.org/2000/svg"><g clip-path="url(#a)"><path d="M400.613 71.67c6.282 3.798 11.598 9.02 14.98 16.14 3.866 7.12 5.799 15.665 5.799 25.158 0 9.494-1.933 17.564-6.282 24.684-3.866 7.12-9.665 12.342-16.914 15.664-7.248 3.798-15.947 5.697-25.128 5.697-5.316 0-10.149-.95-14.981-2.848-4.833-1.424-9.182-4.273-12.565-7.595v49.367h-28.028V67.873h24.162l2.417 10.444c10.631-8.545 22.229-12.817 34.31-12.817 8.215 0 15.947 1.899 22.23 6.17Zm-15.464 58.862c4.832-4.272 7.248-9.969 7.248-17.089 0-7.12-2.416-12.816-6.765-17.563-4.349-4.747-10.148-6.646-16.43-6.646-5.316 0-10.149.95-14.015 3.323-3.866 1.899-6.765 5.221-9.181 9.494v21.36c1.449 4.273 4.349 7.595 7.732 9.969 3.866 2.373 8.215 3.797 13.531 3.797 7.248 0 13.047-2.373 17.88-6.645ZM437.821 88.275c4.35-6.646 10.148-12.342 17.88-16.14 7.732-3.797 16.431-6.17 26.096-6.17s18.363 1.899 26.095 6.17c7.249 3.798 13.048 9.494 17.397 16.615 4.349 7.12 6.282 14.715 6.282 23.734 0 9.019-1.933 16.614-6.282 23.734-4.349 7.12-9.665 12.816-17.397 16.614-7.249 3.797-16.43 6.171-26.095 6.171s-18.364-1.899-26.096-5.696c-7.732-3.798-13.53-9.019-17.88-16.14-3.866-7.12-6.282-15.19-6.282-24.683 0-9.019 2.416-17.089 6.282-24.209Zm28.512 41.297c3.866 4.747 9.182 6.646 15.464 6.646s11.598-2.373 15.464-6.646c3.866-4.272 5.799-10.443 5.799-17.088 0-7.12-1.933-12.817-5.799-17.089-4.35-4.747-9.182-7.12-15.947-7.12-6.283 0-11.115 2.373-15.464 6.645-3.866 4.747-5.799 10.444-5.799 17.564 0 6.645 1.933 12.342 6.282 17.088ZM577.001.464v156.171h-28.028V.464h28.028ZM692.01 70.24l-57.023 128.165h-27.061l21.262-46.044-40.592-82.12h31.894l23.196 51.265 23.196-51.266h25.128ZM799.287 70.237v86.392c0 8.07-2.416 15.665-7.249 22.311-4.832 6.645-11.115 11.867-19.33 15.664-8.215 3.798-16.913 5.696-26.578 5.696-7.249 0-13.531-.949-18.847-2.373-5.316-1.899-9.665-3.798-13.048-5.696-3.865-2.374-7.731-5.222-12.081-9.019l16.431-18.988c3.866 3.798 8.215 6.646 12.081 8.545 3.866 1.898 9.182 3.322 14.981 3.322 7.248 0 13.047-1.898 17.88-5.221 4.832-3.323 7.248-8.544 7.248-14.715v-12.342c-2.899 4.272-6.765 8.07-12.564 10.918-5.799 2.848-12.564 4.272-20.296 4.272-7.732 0-15.464-1.899-22.23-6.171-6.765-3.798-12.081-9.494-16.43-16.614-3.866-7.12-6.282-14.715-6.282-23.259 0-8.545 1.933-16.614 6.282-23.735 4.349-7.12 9.665-12.816 16.913-17.088 6.766-4.272 14.015-6.171 21.747-6.171 7.248 0 13.53.95 19.329 2.848 5.799 1.899 10.149 4.747 13.048 8.07l2.9-6.646h26.095Zm-28.512 53.165v-21.361c-1.933-4.272-4.832-7.595-9.181-9.969-4.35-2.373-9.182-3.797-14.981-3.797-6.765 0-12.564 2.373-17.397 6.645-4.832 4.273-7.249 9.969-7.249 17.089 0 6.646 2.417 12.817 7.249 17.563 4.833 4.747 10.632 7.121 17.397 7.121 11.115-.475 19.33-4.747 24.162-13.291ZM822.491 88.285c4.349-7.12 10.148-12.342 17.88-16.614 7.732-3.798 16.431-6.171 26.096-6.171s18.363 1.899 26.095 6.17c7.249 3.798 13.048 9.495 17.397 16.615 3.866 7.12 6.282 14.715 6.282 23.734 0 9.019-1.933 16.614-6.282 23.734-3.866 7.12-9.665 12.817-17.397 16.614-7.249 3.798-16.43 6.171-26.095 6.171s-18.364-1.899-26.096-5.696c-7.732-3.798-13.531-9.019-17.88-16.139-4.349-7.121-6.282-15.19-6.282-25.159 0-8.069 1.933-16.139 6.282-23.26Zm28.029 41.297c3.866 4.747 9.181 6.646 15.463 6.646 6.283 0 11.598-2.374 15.464-6.646 3.866-4.272 5.799-10.443 5.799-17.088 0-7.121-1.933-12.817-5.799-17.089-3.866-4.272-9.181-6.645-15.464-6.645-6.282 0-11.114 2.373-15.463 6.645-4.35 4.272-6.283 10.443-6.283 17.089.484 6.645 2.417 12.341 6.283 17.088ZM1015.31 73.085c5.8 4.747 8.21 10.918 8.69 18.513v65.031h-28.507v-54.588c-.483-8.544-4.832-12.817-13.048-12.817-6.282 0-11.597 2.848-15.463 9.02-3.866 6.17-5.799 13.765-5.799 22.784v35.601h-28.029V70.237h25.612l1.933 13.766c3.383-5.696 7.732-9.969 13.531-13.291 5.799-3.323 12.565-4.747 20.297-4.747 8.213 0 15.463 2.373 20.783 7.12Z" fill="#212121"/><path d="M197.648 68.824c-4.833-2.848-11.115-2.848-16.43 0l-37.694 21.835-25.612 14.241-37.693 21.835c-4.832 2.848-11.115 2.848-16.43 0l-29.962-17.089c-4.832-2.848-8.215-8.069-8.215-13.765V62.178c0-5.696 2.9-10.918 8.215-13.766l29.478-16.614c4.833-2.848 11.115-2.848 16.43 0l29.479 16.614c4.832 2.848 8.215 8.07 8.215 13.766v21.836l25.612-14.716V47.463c0-5.696-2.899-10.918-8.215-13.766L80.219 2.368c-4.832-2.848-11.115-2.848-16.43 0L8.215 33.698C2.9 36.544 0 41.766 0 47.462v63.133c0 5.696 2.9 10.918 8.215 13.766l55.574 31.329c4.832 2.848 11.114 2.848 16.43 0l37.693-21.361 25.612-14.715 37.694-21.36c4.832-2.849 11.114-2.849 16.43 0l29.478 16.613c4.832 2.848 8.215 8.07 8.215 13.766v33.702c0 5.697-2.899 10.918-8.215 13.766l-29.478 17.089c-4.833 2.848-11.115 2.848-16.43 0l-29.478-16.614c-4.833-2.848-8.216-8.07-8.216-13.766v-21.835l-25.612 14.715v21.835c0 5.696 2.9 10.918 8.215 13.766l55.574 31.329c4.832 2.848 11.114 2.848 16.43 0l55.574-31.329c4.832-2.848 8.215-8.07 8.215-13.766v-63.133c0-5.696-2.9-10.917-8.215-13.765l-56.057-31.804Z" fill="#8247E5"/></g><defs><clipPath id="a"><path fill="#fff" d="M0 0h1024v225H0z"/></clipPath></defs></svg>
